src/basic/800/u1F511-key.svg

<svg width="7" height="16" viewBox="0 0 7 16" fill="none" xmlns="http://www.w3.org/2000/svg">
<path fill-rule="evenodd" clip-rule="evenodd" d="M3,2h0.5h2.5v1h-2v1h1.5v1h-1.5v2.03544c1.69615,0.24262 3,1.70132 3,3.46456c0,1.933 -1.567,3.5 -3.5,3.5c-1.933,0 -3.5,-1.567 -3.5,-3.5c0,-1.76324 1.30385,-3.22194 3,-3.46456v-4.53544zM3.5,8c-1.38071,0 -2.5,1.11929 -2.5,2.5c0,1.3807 1.11929,2.5 2.5,2.5c1.38071,0 2.5,-1.1193 2.5,-2.5c0,-1.38071 -1.11929,-2.5 -2.5,-2.5z" fill="black"/>
</svg>

<svg width="7" height="16" viewBox="0 0 7 16" fill="none" xmlns="http://www.w3.org/2000/svg">
<path fill-rule="evenodd" clip-rule="evenodd" d="M3 2H3.5H6V3H4V4H5.5V5H4V7.03544C5.69615 7.27806 7 8.73676 7 10.5C7 12.433 5.433 14 3.5 14C1.567 14 0 12.433 0 10.5C0 8.73676 1.30385 7.27806 3 7.03544V2.5V2ZM3.5 8C2.11929 8 1 9.11929 1 10.5C1 11.8807 2.11929 13 3.5 13C4.88071 13 6 11.8807 6 10.5C6 9.11929 4.88071 8 3.5 8Z" fill="black"/>
</svg>
